packages/components/src/components/icon/common/ic-assets-forex.svg

<svg width="25" height="24" viewBox="0 0 25 24" fill="none" xmlns="http://www.w3.org/2000/svg">
<g clip-path="url(#clip0_6676:12157)">
<path d="M14.75 4.5C15.0134 4.5 15.2576 4.63822 15.3931 4.86413L17 7.542L18.6069 4.86413C18.7198 4.67587 18.9082 4.54851 19.1203 4.51128L19.25 4.5H23.75C24.368 4.5 24.7208 5.20557 24.35 5.7L20.153 11.2965L24.3931 18.3641C24.67 18.8256 24.3845 19.403 23.8804 19.4891L23.75 19.5H19.25C18.9659 19.5 18.7062 19.3395 18.5792 19.0854L17 15.927L15.4208 19.0854C15.3149 19.2972 15.117 19.4439 14.8895 19.4869L14.75 19.5H10.25C9.66703 19.5 9.30694 18.864 9.60688 18.3641L13.847 11.2965L11.7205 8.45906C11.63 8.77155 11.3417 9 11 9H5.75V10.5H9.5C9.86819 10.5 10.1744 10.7653 10.2379 11.1152L10.25 11.25V14.25C10.25 14.6642 9.91421 15 9.5 15H5.75V18.75C5.75 19.1182 5.48469 19.4244 5.13481 19.4879L5 19.5H2C1.58579 19.5 1.25 19.1642 1.25 18.75V5.25C1.25 4.83579 1.58579 4.5 2 4.5H14.75ZM9.8735 6H2.75V18H4.25V14.25C4.25 13.8818 4.51531 13.5756 4.86519 13.5121L5 13.5H8.75V12H5C4.63181 12 4.32559 11.7347 4.26208 11.3848L4.25 11.25V8.25C4.25 7.83579 4.58579 7.5 5 7.5H10.25V6.5025L9.8735 6ZM14.3255 6H11.75V6.0015L15.35 10.8C15.4755 10.9673 15.5229 11.1752 15.4897 11.3737L15.4497 11.52L15.3931 11.6359L11.573 18H14.285L16.3292 13.9146C16.5843 13.4043 17.2761 13.3651 17.5984 13.7968L17.6708 13.9146L19.7135 18H22.4255L18.6069 11.6359C18.4724 11.4117 18.4657 11.137 18.5818 10.9094L18.65 10.8L22.25 6H19.673L17.6431 9.38587C17.3761 9.83092 16.7626 9.868 16.4378 9.49713L16.3569 9.38587L14.3255 6Z" fill="#333333"/>
</g>
<defs>
<clipPath id="clip0_6676:12157">
<rect width="24" height="24" fill="white" transform="translate(0.5)"/>
</clipPath>
</defs>
</svg>

<svg width="25" height="24" fill="none" xmlns="http://www.w3.org/2000/svg"><g clip-path="url(#a)"><path d="M14.75 4.5a.75.75 0 0 1 .643.364L17 7.542l1.607-2.678a.75.75 0 0 1 .513-.353l.13-.011h4.5a.75.75 0 0 1 .6 1.2l-4.197 5.596 4.24 7.068a.75.75 0 0 1-.513 1.125l-.13.011h-4.5a.75.75 0 0 1-.67-.415L17 15.927l-1.58 3.158a.75.75 0 0 1-.53.402l-.14.013h-4.5a.75.75 0 0 1-.643-1.136l4.24-7.068L11.72 8.46A.75.75 0 0 1 11 9H5.75v1.5H9.5a.75.75 0 0 1 .738.615l.012.135v3a.75.75 0 0 1-.75.75H5.75v3.75a.75.75 0 0 1-.615.738L5 19.5H2a.75.75 0 0 1-.75-.75V5.25A.75.75 0 0 1 2 4.5h12.75ZM9.873 6H2.75v12h1.5v-3.75a.75.75 0 0 1 .615-.738L5 13.5h3.75V12H5a.75.75 0 0 1-.738-.615l-.012-.135v-3A.75.75 0 0 1 5 7.5h5.25v-.997L9.873 6Zm4.453 0H11.75v.002l3.6 4.798a.75.75 0 0 1 .14.574l-.04.146-.057.116L11.573 18h2.712l2.044-4.085a.75.75 0 0 1 1.27-.118l.072.118L19.714 18h2.712l-3.82-6.364a.75.75 0 0 1-.024-.727l.068-.109 3.6-4.8h-2.577l-2.03 3.386a.75.75 0 0 1-1.205.111l-.081-.111L14.326 6Z" fill="var(--fill-color1)"/></g><defs><clipPath id="a"><path fill="#fff" transform="translate(.5)" d="M0 0h24v24H0z"/></clipPath></defs></svg>
